X:1
T:I liet'amanti
T:I liet'amanti
T:Theodorico Sistino
T:Source : Cantiones trium vocum---Hamburgi---P.ab Ohr---1608. Editor : André Vierendeels (28/02/14).
T:Notes : Original clefs :C3, C4, F4 Editorial accidentals above the staff 
C:Theodorico Sistino
%%score [ 1 2 3 ]
L:1/8
Q:1/4=80
M:4/4
K:C
V:1 treble-8 nm="Tenor 1" snm="T 1"
V:2 treble-8 nm="Tenor 2" snm="T 2"
V:3 bass nm="Bass" snm="B"
V:1
 z2 d2 d2 e2 | d4 e2 e2 | d3 c B2 c2 | A3 A B2 d2 | e2 ^f2 g4 | ^f4 d4 | e4 ^f4 | g4 e4 | %8
w: I lie- t'a-|man- ti et|le fan- ciul le|te- ne- re, i|lie- t'a- man-|ti et|le fan-|ciul le|
 d3 c/B/ A2 A2 | B8 ::[M:3/2] d4 d4 e4 | d8 c4 | d8 e4 | g4 g4 a4 | g8 f4 | e8 ^f4 | %16
w: te- * * * ne-|re,|gi- van di|prat' in|pra- to,|gi- van di|prat' in|pra- to,|
[M:2/2] g2 d2 B3 c | d2 e4 d2 | d2 B2 G3 A | B2 c4 B2 | d2 d2 d2 B2 | A2 B4 A2 | z2 d2 GA Bc | %23
w: ram- men- tan- do|s'il fuo- co,|ram- men- tan- do|s'il fuo- co,|ram- men- tan- do|s'il fuo- co|e l'ar- * * *|
 d2 A2 d2 c2 | c4 B4 | A6 A2 | B4 z2 A2 | GA Bc d2 A2 |"^#" G2 gf ed e2 | ^f2 g4 d2 | e3 d/c/ d4 | %31
w: * co del fi-|gliol di|Ve- re-|re, il|fuo- * * * * co|e l'ar- * * * *|co del fi-|gl'iol _ _ _|
 d2 c2 B2 AG | A6 A2 | B8 :| %34
w: di _ _ _ _|Ve- ne-|re.|
V:2
 z2 B2 B2 c2- | c2 B2 c2 c2 | B2 A2 G2 G2 | ^F3 F G2 B2 | c2 d2 B4 | A2 B4 G2- | G2 A4 B2- | %7
w: I lie- t'a-|* man- ti, et|le fan- ciul le|te- ne- re, i|lie- t'a- man-|ti et le|_ fan- ciul|
 B2 G4 A2- | A2 G4 ^F2 | G8 ::[M:3/2] B4 B4 c4 | B8 A4 | B8 c4 | e4 e4 f4 | e8 d4 | ^c8 d4 | %16
w: _ le te-|* * ne-|re,|gi- van di|prat' in|pra- to,|gi- van di|prat' in|pra- to,|
[M:2/2] B2 G2 G3 A | B2 c4 B2 | B2 G2 B3 c | d2 e2 d4 | B2 A2 B2 G2 | ^F2 G4 F2 | z2 A2 G4- | %23
w: ram- men- tan- do|s'il fuo- co,|ram- men- tan- do|s'il fuo- co,|ram- men- tan- do|s'il fuo- co|e l'ar-|
 G2 ^F2 B2 G2 | A2 E^F G4- | G4 ^F4 | G4 z2 ^F2 | G6 ^F2 | B2 d4 ^c2 | d2 B4 B2 | G3 A B3 A/G/ | %31
w: * co del fi-|gliol di Ve- ne-||re, il|fuo- co|e l'ar- *|co del fi-|gl'iol _ _ _ _|
 ^F4 G4- | G2 ^FE F4 | B8 :| %34
w: _ di|_ Ve- * ne-|re.|
V:3
 z2 G,2 G,2 C,2 | G,4 C,2 C,2 | D,2 D,2 E,2 C,2 | D,3 D, G,,2 G,2 | E,2 D,2 G,,A,, B,,C, | %5
w: I lie- t'a-|man- ti, et|le fan- ciul le|te- ne- ra, i|lie- t'a- man- * * *|
 D,4 G,4 | C,4 D,4 | E,4 C,4 | D,6 D,2 | G,,8 ::[M:3/2] G,4 G,4 C,4 | G,8 A,4 | G,8 C,4 | %13
w: ti et|le fan-|ciul le|te- ne-|re,|gi- van di|prat' in|pra- to,|
 C,4 C,4 F,4 | C,8 D,4 | A,8 D,4 |[M:2/2] G,,4 G,,2 G,,2- | G,,2 C,2 G,,4 | G,,4 G,,4 | z4 G,4- | %20
w: gi- van di|prat' in|pra- to,|ram- men- tan-|* do s'il|fuo- co,|ram-|
 G,2 D,2 B,,3 C, | D,2 G,,4 D,2 | z2 D,2 E,4 | D,4 B,,2 C,2 | A,,4 G,,4 | D,6 D,2 | G,,4 z2 D,2 | %27
w: * men- tan- do|s'il fuo- co|e l'ar-|co del fi-|gliol di|Ve- ne-|re il|
 E,4 D,4 | z2 G,2 A,4 | D,2 E,4 B,,2 | C,3 B,,/A,,/ G,,A,, B,,C, | D,4 E,4 | D,6 D,2 | G,,8 :| %34
w: fuo- co|e l'ar-|co del fi-|gl'iol _ _ _ _ _ _|_ di|Ve- ne-|re.|

